X: 1
T: Gulam\aalavitens Brudmarsch fr\aan Val\"o
O: efter Ceylon Wallin
S: Peter "Puma" Hedlund at ANA Stämma 1999
Z: from transcription by Matt Fichtenbaum
M: C|
L: 1/8
K: C
   c2 | "C"G2E2 (EG)(c~B) | "F"A2F2 "Dm"F2(d~c) | "G7"B2G2 (AB)BB |1 "C"c2G2 (EG):|2 "C"c6 ||
|: G2 | "G7"B2c2 d2B2 | "C"c2d2 e2c2 | "G7"B2c2 d2B2 | "C"c2d2 e2c2 |
   y6 |  "C"G2E2 (EG)(c~B) | "F"A2F2 "Dm"F2(d~c) | "G7"B2G2 (AB)BB | "C"c6 :|
|:(Gc)| "C"(ec)cc c2(cB) | "Dm"(dA)AA A2(AB) | "F"c2(cB) c2A2 | "C"A2G2 ((3GEG) c2 |
   y6 | "C"G4 (GA)GE | "C"C2C2 E2(DC) | "F"F4 F2(AF) | "G7"G2B2 B2(AB) |
   y4 | "C"c6 (GE) | "C"C2C2 E2(DC) | "F"F4 F2(AF) | "G7"G2B2 B2(AB) | "C"c6 :|
